X:501
T:Soldier's Joy
S:Various
Z:Nigel Gatherer
M:4/4
L:1/8
K:D
FG | AFDF  AFDF | A2 d2 d2 cB | AFDF  AFDF | G2 E2 E2 
FG | AFDF  AFDF | A2 d2 d2 e2 | fafd  egec | d2 d2 d2  :|
de | f2 f2 fagf | edcd  efge  | f2 f2 fagf | edcB A2
de | f2 f2 fagf | edcd  efge  | fafd  egec | d2 d2 d2 :|]
<end>
<start>
